packages/foundations/assets/icons/functional/images/devices/fax_machine_24.svg

<svg width="24" height="24" viewBox="0 0 24 24" fill="none" xmlns="http://www.w3.org/2000/svg">
<g clip-path="url(#clip0_185_711)">
<path fill-rule="evenodd" clip-rule="evenodd" d="M16.0925 2C16.3425 2 16.5925 2.156 16.7175 2.25L19.7485 5.312C19.9045 5.5 19.9985 5.75 19.9985 6L20.0005 9.183C21.1635 9.597 22.0005 10.696 22.0005 12V16.999C22.0005 18.657 20.6565 20 18.9995 20H9.93451C9.66751 21.171 8.57751 22 7.18751 22C5.97051 22 1.99951 21.421 1.99951 13.969C1.99951 8.324 4.15351 6.589 5.99951 6.139V3.781C5.99951 2.75 6.81151 2 7.81151 2H16.0925ZM7.18651 7.999C4.74851 7.999 3.99851 10.749 3.99851 13.968C3.99851 17.561 5.06151 19.999 7.18651 19.999C7.62351 19.999 7.99851 19.812 7.99851 19.437V17.687C7.99851 17.5 7.90551 17.375 7.68651 17.375H7.21751C6.34251 17.375 5.99851 16.375 5.99851 13.969C5.99851 11.719 6.34251 10.594 7.21751 10.594H7.71751C7.90451 10.594 7.99851 10.437 7.99851 10.28V8.499C7.99851 8.124 7.59251 7.999 7.18651 7.999ZM18.9975 11.002H9.88251C9.62351 11.825 8.93751 12.438 8.07051 12.569C8.03251 12.861 7.99851 13.306 7.99851 13.97C7.99851 14.651 8.02951 15.106 8.06551 15.405C9.19051 15.576 9.99851 16.501 9.99851 17.689V18.001H18.9975C19.5495 18.001 19.9985 17.552 19.9985 17.002V12.003C19.9985 11.451 19.5495 11.002 18.9975 11.002ZM15.0105 15C15.5515 15 15.9985 15.442 15.9985 16C15.9985 16.558 15.5515 17 15.0105 17H14.9875C14.4465 17 13.9995 16.558 13.9995 16C13.9995 15.442 14.4465 15 14.9875 15H15.0105ZM18.0105 15C18.5515 15 18.9985 15.442 18.9985 16C18.9985 16.558 18.5515 17 18.0105 17H17.9875C17.4465 17 16.9995 16.558 16.9995 16C16.9995 15.442 17.4465 15 17.9875 15H18.0105ZM15.0105 12C15.5515 12 15.9985 12.442 15.9985 13C15.9985 13.558 15.5515 14 15.0105 14H14.9875C14.4465 14 13.9995 13.558 13.9995 13C13.9995 12.442 14.4465 12 14.9875 12H15.0105ZM18.0105 12C18.5515 12 18.9985 12.442 18.9985 13C18.9985 13.558 18.5515 14 18.0105 14H17.9875C17.4465 14 16.9995 13.558 16.9995 13C16.9995 12.442 17.4465 12 17.9875 12H18.0105ZM14.9985 4H7.99851V6.102C9.30951 6.413 9.99851 7.457 9.99851 8.5V9H17.9985V7H15.9675C15.4365 7 14.9985 6.5 14.9985 6V4Z" fill="#1A1C1F"/>
</g>
<defs>
<clipPath id="clip0_185_711">
<rect width="24" height="24" fill="white"/>
</clipPath>
</defs>
</svg>

<svg xmlns="http://www.w3.org/2000/svg" width="24" height="24" fill="none"><g clip-path="url(#a)"><path fill="#1A1C1F" fill-rule="evenodd" d="M16.093 2c.25 0 .5.156.625.25l3.03 3.062c.156.188.25.438.25.688L20 9.183c1.163.414 2 1.513 2 2.817v4.999A3 3 0 0 1 19 20H9.935c-.267 1.171-1.357 2-2.747 2C5.97 22 2 21.421 2 13.969c0-5.645 2.154-7.38 4-7.83V3.781C6 2.75 6.812 2 7.812 2zM7.187 7.999c-2.438 0-3.188 2.75-3.188 5.969 0 3.593 1.063 6.031 3.188 6.031.437 0 .812-.187.812-.562v-1.75c0-.187-.093-.312-.312-.312h-.47c-.874 0-1.218-1-1.218-3.406 0-2.25.344-3.375 1.219-3.375h.5c.187 0 .28-.157.28-.314V8.499c0-.375-.405-.5-.811-.5m11.81 3.003H9.883a2.25 2.25 0 0 1-1.812 1.567c-.038.292-.072.737-.072 1.401 0 .681.03 1.136.067 1.435 1.125.171 1.933 1.096 1.933 2.284v.312h8.998c.552 0 1.002-.449 1.002-.999v-4.999c0-.552-.45-1.001-1.001-1.001M15.011 15c.54 0 .988.442.988 1s-.447 1-.989 1h-.022a.993.993 0 0 1-.989-1c0-.558.447-1 .989-1zm3 0c.54 0 .988.442.988 1s-.447 1-.988 1h-.023A.993.993 0 0 1 17 16c0-.558.447-1 .988-1zm-3-3c.54 0 .988.442.988 1s-.447 1-.989 1h-.022a.993.993 0 0 1-.989-1c0-.558.447-1 .989-1zm3 0c.54 0 .988.442.988 1s-.447 1-.988 1h-.023A.993.993 0 0 1 17 13c0-.558.447-1 .988-1zm-3.012-8h-7v2.102c1.31.311 2 1.355 2 2.398V9h8V7h-2.031c-.531 0-.97-.5-.97-1z" clip-rule="evenodd"/></g><defs><clipPath id="a"><path fill="#fff" d="M0 0h24v24H0z"/></clipPath></defs></svg>
